packages/vapor/resources/icons/svg/source-jira.svg

<?xml version="1.0" encoding="UTF-8" standalone="no"?>
<svg width="32px" height="32px" viewBox="0 0 32 32" version="1.1" xmlns="http://www.w3.org/2000/svg" xmlns:xlink="http://www.w3.org/1999/xlink" xmlns:sketch="http://www.bohemiancoding.com/sketch/ns">
    <defs>
        <rect id="path-1" x="0" y="0" width="32" height="32" rx="2"></rect>
    </defs>
    <g id="Sources-Icons-32px" stroke="none" stroke-width="1" fill="none" fill-rule="evenodd" sketch:type="MSPage">
        <g id="Jira" sketch:type="MSArtboardGroup">
            <g id="source-jira" sketch:type="MSLayerGroup">
                <mask id="mask-2" sketch:name="BG" fill="white">
                    <use xlink:href="#path-1"></use>
                </mask>
                <use id="BG" fill="#1F2E4F" sketch:type="MSShapeGroup" xlink:href="#path-1"></use>
                <path d="M18.5674077,18.898396 C21.4174586,22.2466085 21.2068505,25.8009975 21.2068505,25.8009975 L17.7200591,25.8009975 C17.9815813,24.5072498 17.4366844,22.635156 12.6423846,18.0261526 C7.84798311,13.4171894 8.0005462,10.251249 8.0005462,10.251249 C7.99952951,9.47677996 8.68672382,9.88023807 8.68672382,9.88023807 C9.96099554,10.8837716 11.7924635,10.8846984 11.7924635,10.8846984 C12.3510211,13.2545852 15.5527266,16.1909847 16.053375,16.6386345 C16.7929937,15.9549727 19.6798337,13.1730278 20.2074366,10.9341077 C20.2074366,10.9341077 22.0389036,10.9085318 23.3131737,9.90496739 C23.3131737,9.90496739 24.0004646,9.47673361 23.9994548,10.2512984 C23.9994548,10.2512984 24.1519176,13.5159646 19.3576155,18.1249587 C19.0799841,18.3918042 18.8168954,18.6494347 18.5674077,18.898396 L18.5674077,18.898396 Z M15.3759147,22.5644346 C14.7572272,21.7811539 13.9320044,20.8642472 12.8403812,19.7719118 C10.6142419,22.9045091 10.7930284,26 10.7930284,26 L14.2798198,26 C14.125122,25.2038357 14.2531909,24.1964958 15.3759147,22.5644346 L15.3759147,22.5644346 Z M14.2439707,11.1715234 L17.698745,11.1715234 C17.698745,11.1715234 18.1501321,11.1093231 18.0400553,11.6945004 C17.8835281,12.5266928 16.0185192,14.2130633 16.0185192,14.2130633 C16.0185192,14.2130633 14.6549049,12.9732387 14.0476007,11.8086526 C14.0476007,11.8086526 13.8023411,11.1715234 14.2439707,11.1715234 L14.2439707,11.1715234 Z M22.0605437,7.67319538 C22.0605437,8.48955966 21.3846304,9.15137184 20.5508712,9.15137184 C19.7171105,9.15137184 19.0410962,8.48955966 19.0410962,7.67319538 C19.0410962,6.85672914 19.7171105,6.19492005 20.5508712,6.19492005 C21.3846304,6.19492005 22.0605437,6.85672914 22.0605437,7.67319538 Z M13.1691486,7.67319538 C13.1691486,8.48955966 12.4932366,9.15137184 11.6594762,9.15137184 C10.8257157,9.15137184 10.1497021,8.48955966 10.1497021,7.67319538 C10.1497021,6.85672914 10.8257157,6.19492005 11.6594762,6.19492005 C12.4932366,6.19492005 13.1691486,6.85672914 13.1691486,7.67319538 Z M17.7019973,6.47827842 C17.7019973,7.29463961 17.0260856,7.9564518 16.1923252,7.9564518 C15.358565,7.9564518 14.6825511,7.29463961 14.6825511,6.47827842 C14.6825511,5.6618091 15.358565,5 16.1923252,5 C17.0260856,5 17.7019973,5.6618091 17.7019973,6.47827842 Z" id="path3962" fill="#FFFFFF" sketch:type="MSShapeGroup" mask="url(#mask-2)"></path>
                <path d="M29,0 L8,32 L32,32 L32,0 L29,0 Z" id="shadow" opacity="0.102203825" fill="#000000" sketch:type="MSShapeGroup" mask="url(#mask-2)"></path>
            </g>
        </g>
    </g>
</svg>

<svg xmlns="http://www.w3.org/2000/svg" viewBox="0 0 32 32" enable-background="new 0 0 32 32">
  <defs>
    <filter id="0" filterUnits="userSpaceOnUse" x="8" y="5" width="16" height="20.9">
      <feColorMatrix type="matrix" values="1 0 0 0 0  0 1 0 0 0  0 0 1 0 0  0 0 0 1 0"/>
    </filter>
    <mask maskUnits="userSpaceOnUse" x="8" y="5" width="16" height="20.9" id="1">
      <g filter="url(#0)">
        <path fill="#fff" d="m2 0h28c1.1 0 2 .9 2 2v28c0 1.1-.9 2-2 2h-28c-1.1 0-2-.9-2-2v-28c0-1.1.9-2 2-2"/>
      </g>
    </mask>
  </defs>
  <path fill="#1f2e4f" d="m2 0h28c1.1 0 2 .9 2 2v28c0 1.1-.9 2-2 2h-28c-1.1 0-2-.9-2-2v-28c0-1.1.9-2 2-2"/>
  <path mask="url(#1)" fill="#fff"
        d="m18.6 18.9c2.8 3.3 2.6 6.9 2.6 6.9h-3.5c.3-1.3-.3-3.2-5.1-7.8-4.7-4.6-4.6-7.7-4.6-7.7 0-.8.7-.4.7-.4 1.3 1 3.1 1 3.1 1 .6 2.4 3.8 5.3 4.3 5.7.7-.7 3.6-3.5 4.1-5.7 0 0 1.8 0 3.1-1 0 0 .7-.4.7.3 0 0 .2 3.3-4.6 7.9-.3.3-.6.5-.8.8m-3.2 3.6c-.6-.8-1.4-1.7-2.5-2.8-2.2 3.1-2 6.2-2 6.2h3.5c-.3-.7-.1-1.7 1-3.4m-1.2-11.3h3.4c0 0 .5-.1.3.5-.2.8-2 2.5-2 2.5s-1.4-1.2-2-2.4c.2 0-.1-.6.3-.6m7.8-3.5c0 .8-.7 1.5-1.5 1.5-.8 0-1.5-.7-1.5-1.5 0-.8.7-1.5 1.5-1.5.9 0 1.5.7 1.5 1.5m-8.8 0c0 .8-.7 1.5-1.5 1.5-.8 0-1.5-.7-1.5-1.5 0-.8.7-1.5 1.5-1.5.8 0 1.5.7 1.5 1.5m4.5-1.2c0 .8-.7 1.5-1.5 1.5-.8 0-1.5-.7-1.5-1.5 0-.8.7-1.5 1.5-1.5.8 0 1.5.7 1.5 1.5"/>
</svg>
